X:1
T: My Mother's Geese
N:
C:
S:
A:
O:
R:
M:3/4
K:G
I:speed 150
%W: A1
% voice 1 (1 lines, 27 notes)
K:G
M:3/4
L:1/16
g2 f2 |g4 f4 g4 |d8 B2 c d |e8 A2 B c |d8 G2 A B |c2 B2 A2 G2 A2 F2 |G4 G,4 g2 f2 |
%W: A2
% voice 1 (1 lines, 25 notes)
g4 f4 g4 |d8 B2 c d |e8 A2 B c |d8 G2 A B |c2 B2 A2 G2 A2 F2 |G4 G,4 g2 f2 |
%W: B1
% voice 1 (1 lines, 37 notes)
g4 g2 a2 b2 a g |a8 g2 f2 |g4 g2 a2 b2 a g |a8 B2 c d |e8 A2 B c |d8 G2 A B |c2 B2 A2 G2 A2 F2 |G4 G,4 g2 f2 |
%W: B2
% voice 1 (1 lines, 35 notes)
g4 g2 a2 b2 a g |a8 g2 f2 |g4 g2 a2 b2 a g |a8 B2 c d |e8 A2 B c |d8 G2 A B |c2 B2 A2 G2 A2 F2 |G4 G,4 ||
